src/pos-icons/celtic-cross.svg

<svg height="24" viewBox="0 0 24 24" width="24" xmlns="http://www.w3.org/2000/svg"><path d="m17.8 8c-.54-2.11-2.19-3.76-4.3-4.3v-1.7h-3v1.7c-2.11.54-3.76 2.19-4.3 4.3h-2.2v3h2.2c.54 2.11 2.19 3.76 4.3 4.3v6.7h3v-6.7c2.11-.54 3.76-2.19 4.3-4.3h2.17v-3zm-5.76 1.53 2.46 1.47h1.26c-.41 1.03-1.23 1.84-2.26 2.26v-1.26l-1.44-2.44-.06-.06-.06.06-1.44 2.44v1.26c-1.03-.42-1.84-1.23-2.26-2.26h1.26l2.46-1.47.04-.03h-.04l-2.46-1.5h-1.26c.41-1.03 1.23-1.84 2.26-2.26v1.26l1.44 2.44.06.06.06-.06 1.44-2.44v-1.26c1.03.42 1.85 1.23 2.26 2.26h-1.26l-2.46 1.5h-.04z"/></svg>

<?xml version="1.0" encoding="UTF-8"?><!DOCTYPE svg PUBLIC "-//W3C//DTD SVG 1.1//EN" "http://www.w3.org/Graphics/SVG/1.1/DTD/svg11.dtd"><svg xmlns="http://www.w3.org/2000/svg" xmlns:xlink="http://www.w3.org/1999/xlink" version="1.1" id="mdi-celtic-cross" width="24" height="24" viewBox="0 0 24 24"><path d="M17.8,8C17.26,5.89 15.61,4.24 13.5,3.7V2H10.5V3.7C8.39,4.24 6.74,5.89 6.2,8H4V11H6.2C6.74,13.11 8.39,14.76 10.5,15.3V22H13.5V15.3C15.61,14.76 17.26,13.11 17.8,11H19.97V8H17.8M12.04,9.53L14.5,11H15.76C15.35,12.03 14.53,12.84 13.5,13.26V12L12.06,9.56L12,9.5L11.94,9.56L10.5,12V13.26C9.47,12.84 8.66,12.03 8.24,11H9.5L11.96,9.53L12,9.5H11.96L9.5,8H8.24C8.65,6.97 9.47,6.16 10.5,5.74V7L11.94,9.44L12,9.5L12.06,9.44L13.5,7V5.74C14.53,6.16 15.35,6.97 15.76,8H14.5L12.04,9.5H12L12.04,9.53Z" /></svg>
